X: 327
T:La plus des plus
N: Derived from Jos2722-La_plus_des_plus.krn
C: Josquin des Prez
%%abc-version 2.0
%%abcx-abcm2ps-target-version 5.9.1 (29 Sep 2008)
%%abc-creator hum2abc beta
%%abcx-conversion-date 2019/02/12 16:15:54
%%abc-edited-by Jesse Rodin
%%abc-edited-by Jesse Rodin; Victoria Chang 2011/05/30/
%%abcx-initial-encoding-date 2011/05/30/
%%humdrum-veritas 4117631863
%%humdrum-veritas-data 3258918459
%%linebreak <none>
%%barnumbers 0
L: 1/4
M: 2/1
Q: 1/2=120
V: 1 clef=treble
V: 2 clef=treble-8
V: 3 clef=bass
K: C
[V:1] z8 | 
[V:2] z4E4- | 
[V:3] E,8 | 
[V:1] z8 | 
[V:2] E4F4 | 
[V:3] C,4D,4 | 
[V:1] z4E4- | 
[V:2] G4A4 | 
[V:3] E,4z2A,,2 | 
[V:1] E4F4 | 
[V:2] G2A4GF | 
[V:3] C,4D,4 | 
[V:1] G4A4 | 
[V:2] E4D4 | 
[V:3] E,4F,4 | 
[V:1] G2A4GF | 
[V:2] z4A4- | 
[V:3] E,2F,4E,D, | 
[V:1] E4D4 | 
[V:2] A4B4 | 
[V:3] C,2B,,A,,G,4 | 
[V:1] z4A4- | 
[V:2] c4d4 | 
[V:3] A,4D,4 | 
[V:1] A4B4 | 
[V:2] c2d4cB | 
[V:3] F,4G,4 | 
[V:1] c4d4 | 
[V:2] A4G4 | 
[V:3] A,4_B,4 | 
[V:1] c2d4cB | 
[V:2] z4d4- | 
[V:3] A,2_B,4A,G, | 
[V:1] A4G4- | 
[V:2] d2cde4- | 
[V:3] F,4C4- | 
[V:1] G2ABc2B2- | 
[V:2] e2d2c2d2- | 
[V:3] C2B,2A,2G,2 | 
[V:1] BAA4^G2 | 
[V:2] dcBAB4 | 
[V:3] F,4E,4 | 
[V:1] A6GF | 
[V:2] A8 | 
[V:3] z4A,,4 | 
[V:1] GFEDC4 | 
[V:2] z4A4 | 
[V:3] B,,4A,,2F,2 | 
[V:1] z4D4 | 
[V:2] B4B4 | 
[V:3] E,2D,4C,B,, | 
[V:1] E4E4 | 
[V:2] c6BA | 
[V:3] A,,4A,4 | 
[V:1] D4A4 | 
[V:2] B4c4 | 
[V:3] z4A,4 | 
[V:1] B4B4 | 
[V:2] d4e4- | 
[V:3] G,6F,E, | 
[V:1] c4B2c2- | 
[V:2] e4e4 | 
[V:3] A,4G,2A,2- | 
[V:1] c2BAG2A2- | 
[V:2] f4e2f2- | 
[V:3] A,2B,2C2F,2- | 
[V:1] A2GFE4- | 
[V:2] f2edc4- | 
[V:3] F,2G,2A,2A,,2- | 
[V:1] E2D2E2F2- | 
[V:2] c2BAG2F2 | 
[V:3] A,,2B,,2C,2D,2- | 
[V:1] FEDCB,2A,2- | 
[V:2] A4G2A2 | 
[V:3] D,C,D,2E,2F,2- | 
[V:1] A,2D4^C2 | 
[V:2] D4E4 | 
[V:3] F,E,F,2G,3A, | 
[V:1] D8 | 
[V:2] D8- | 
[V:3] _B,2A,2B,2A,2- | 
[V:1] z4A,4 | 
[V:2] D8 | 
[V:3] A,G,F,E,D,2C,B,, | 
[V:1] C6B,A, | 
[V:2] z4A4 | 
[V:3] A,,8- | 
[V:1] C2D2E4 | 
[V:2] A4A4 | 
[V:3] A,,8 | 
[V:1] z4E4 | 
[V:2] c6BA | 
[V:3] A,8 | 
[V:1] G6FE | 
[V:2] e8- | 
[V:3] E,8 | 
[V:1] G2A2B4 | 
[V:2] e4e4 | 
[V:3] E,6F,2 | 
[V:1] B4c4- | 
[V:2] d4c4 | 
[V:3] G,4A,4 | 
[V:1] c2BAB2c2 | 
[V:2] A4e4 | 
[V:3] F,4E,2A,2 | 
[V:1] B2c4BA | 
[V:2] z2e2c2d2 | 
[V:3] G,2E,2F,3G, | 
[V:1] G8 | 
[V:2] e6d2 | 
[V:3] E,8- | 
[V:1] z4G4 | 
[V:2] c2BAB4 | 
[V:3] E,8 | 
[V:1] A6G2 | 
[V:2] A3Bcde2- | 
[V:3] z2A,,3B,,C,2 | 
[V:1] F2EDE4 | 
[V:2] edd4^c2 | 
[V:3] D,2B,,2A,,4 | 
[V:1] D3EFGA2- | 
[V:2] d6c2 | 
[V:3] z2D,3E,F,2 | 
[V:1] AGG4^F2 | 
[V:2] B2AGA4 | 
[V:3] G,2E,2D,4 | 
[V:1] G6F2 | 
[V:2] G3ABcd2- | 
[V:3] z2G,3A,B,2 | 
[V:1] E2DCD4 | 
[V:2] dcc4B2 | 
[V:3] C2A,2G,4 | 
[V:1] C8 | 
[V:2] c2A4GF | 
[V:3] A,4A,,4- | 
[V:1] z4G4 | 
[V:2] E2D2E4 | 
[V:3] A,,2B,,2C,2D,E, | 
[V:1] A4c4 | 
[V:2] D4A4 | 
[V:3] F,2G,A,A,,2A,2 | 
[V:1] B2A4GF | 
[V:2] z4D4 | 
[V:3] G,2F,4E,D, | 
[V:1] G2A2D4 | 
[V:2] E2F3ED2 | 
[V:3] C,2A,,2B,,4 | 
[V:1] E2F3EDC | 
[V:2] C2D3EF2 | 
[V:3] A,,2A,3G,A,2 | 
[V:1] B,2A,2B,4 | 
[V:2] G2A4^G2 | 
[V:3] E,2C,2D,2E,2 | 
[V:1] A,3B,CA,C2- | 
[V:2] A4A4 | 
[V:3] A,,4z2A,,2- | 
[V:1] CDECE3F | 
[V:2] A4G2c2- | 
[V:3] A,,B,,C,A,,C,3D, | 
[V:1] GEG3ABG | 
[V:2] c2B2e4 | 
[V:3] E,C,E,3F,G,E, | 
[V:1] B3cdBc2- | 
[V:2] d2e2d2c2 | 
[V:3] G,3A,B,G,A,2- | 
[V:1] cBA4^G2 | 
[V:2] A4B4 | 
[V:3] A,2F,2E,4 | 
[V:1] A8 |]  
[V:2] A8 |]  
[V:3] A,,8 |]  



